X:1
L:1/8
M:4/4
K:G
|:""G"" G2 B/A/G""G""dGBd |""G"" g2 fg""Em""egdB |""Am"" cAec""G""B/c/dGB |""D"" ADFA""G""dBcA | 
""G"" G2 B/A/G""G""dGBd |""G"" g2 fg""Em""egdB |""Am"" cAec""G""B/c/dGB |""D"" ADFA""G"" G3 z ::""G"" gGBg""Am""fAce | 
""Em"" edB/A/G""D""ADF/E/D |""G"" GBB/B/B""C""ceag |""Am"" f/g/aea""A""^cdef |""G"" gGBg""Am""fAce | 
""Em"" edB/A/G""D""ADF/E/D |""G"" GBB/B/B""C""ceag |""D"" f/e/dc/B/A""G""GABd :|
